images/3234100.svg

<?xml version="1.0" encoding="UTF-8"?>
<svg xmlns="http://www.w3.org/2000/svg" xmlns:xlink="http://www.w3.org/1999/xlink" width="300pt" height="300pt" viewBox="0 0 300 300" version="1.1">
<defs>
<g>
<symbol overflow="visible" id="glyph0-0">
<path style="stroke:none;" d="M 0.453125 1.59375 L 0.453125 -6.34375 L 4.953125 -6.34375 L 4.953125 1.59375 Z M 0.953125 1.09375 L 4.453125 1.09375 L 4.453125 -5.84375 L 0.953125 -5.84375 Z M 0.953125 1.09375 "/>
</symbol>
<symbol overflow="visible" id="glyph0-1">
<path style="stroke:none;" d="M 3.546875 -5.953125 C 2.898438 -5.953125 2.382812 -5.710938 2 -5.234375 C 1.625 -4.753906 1.4375 -4.101562 1.4375 -3.28125 C 1.4375 -2.445312 1.625 -1.789062 2 -1.3125 C 2.382812 -0.832031 2.898438 -0.59375 3.546875 -0.59375 C 4.191406 -0.59375 4.703125 -0.832031 5.078125 -1.3125 C 5.453125 -1.789062 5.640625 -2.445312 5.640625 -3.28125 C 5.640625 -4.101562 5.453125 -4.753906 5.078125 -5.234375 C 4.703125 -5.710938 4.191406 -5.953125 3.546875 -5.953125 Z M 3.546875 -6.6875 C 4.460938 -6.6875 5.195312 -6.375 5.75 -5.75 C 6.300781 -5.132812 6.578125 -4.3125 6.578125 -3.28125 C 6.578125 -2.238281 6.300781 -1.410156 5.75 -0.796875 C 5.195312 -0.179688 4.460938 0.125 3.546875 0.125 C 2.617188 0.125 1.878906 -0.179688 1.328125 -0.796875 C 0.773438 -1.410156 0.5 -2.238281 0.5 -3.28125 C 0.5 -4.3125 0.773438 -5.132812 1.328125 -5.75 C 1.878906 -6.375 2.617188 -6.6875 3.546875 -6.6875 Z M 3.546875 -6.6875 "/>
</symbol>
<symbol overflow="visible" id="glyph0-2">
<path style="stroke:none;" d="M 0.890625 -6.5625 L 2.078125 -6.5625 L 4.984375 -1.078125 L 4.984375 -6.5625 L 5.84375 -6.5625 L 5.84375 0 L 4.65625 0 L 1.75 -5.484375 L 1.75 0 L 0.890625 0 Z M 0.890625 -6.5625 "/>
</symbol>
</g>
</defs>
<g id="surface31873">
<rect x="0" y="0" width="300" height="300" style="fill:rgb(100%,100%,100%);fill-opacity:1;stroke:none;"/>
<path style="fill:none;stroke-width:1.2;stroke-linecap:butt;stroke-linejoin:miter;stroke:rgb(0%,0%,0%);stroke-opacity:1;stroke-miterlimit:10;" d="M 35.25 95.871094 L 42.269531 105.339844 "/>
<path style="fill:none;stroke-width:1.2;stroke-linecap:butt;stroke-linejoin:miter;stroke:rgb(100%,0%,0%);stroke-opacity:1;stroke-miterlimit:10;" d="M 42.269531 105.339844 L 49.289062 114.808594 "/>
<path style="fill:none;stroke-width:1.2;stroke-linecap:butt;stroke-linejoin:miter;stroke:rgb(100%,0%,0%);stroke-opacity:1;stroke-miterlimit:10;" d="M 49.289062 114.808594 L 61 113.464844 "/>
<path style="fill:none;stroke-width:1.2;stroke-linecap:butt;stroke-linejoin:miter;stroke:rgb(0%,0%,0%);stroke-opacity:1;stroke-miterlimit:10;" d="M 61 113.464844 L 72.710938 112.121094 "/>
<path style=" stroke:none;fill-rule:nonzero;fill:rgb(100%,100%,100%);fill-opacity:1;" d="M 45.289062 109.308594 L 53.289062 109.308594 L 53.289062 120.308594 L 45.289062 120.308594 Z M 45.289062 109.308594 "/>
<g style="fill:rgb(100%,0%,0%);fill-opacity:1;">
  <use xlink:href="#glyph0-1" x="45.289062" y="117.97168"/>
</g>
<path style="fill:none;stroke-width:1.2;stroke-linecap:butt;stroke-linejoin:miter;stroke:rgb(0%,0%,0%);stroke-opacity:1;stroke-miterlimit:10;" d="M 72.710938 112.121094 L 77.402344 101.304688 "/>
<path style="fill:none;stroke-width:1.2;stroke-linecap:butt;stroke-linejoin:miter;stroke:rgb(0%,0%,100%);stroke-opacity:1;stroke-miterlimit:10;" d="M 77.402344 101.304688 L 82.09375 90.492188 "/>
<path style="fill:none;stroke-width:1.2;stroke-linecap:butt;stroke-linejoin:miter;stroke:rgb(0%,0%,0%);stroke-opacity:1;stroke-miterlimit:10;" d="M 78.738281 112.164062 L 82.492188 103.511719 "/>
<path style="fill:none;stroke-width:1.2;stroke-linecap:butt;stroke-linejoin:miter;stroke:rgb(0%,0%,100%);stroke-opacity:1;stroke-miterlimit:10;" d="M 82.492188 103.511719 L 86.246094 94.863281 "/>
<path style="fill:none;stroke-width:1.2;stroke-linecap:butt;stroke-linejoin:miter;stroke:rgb(0%,0%,100%);stroke-opacity:1;stroke-miterlimit:10;" d="M 86.753906 131.058594 L 79.734375 121.589844 "/>
<path style="fill:none;stroke-width:1.2;stroke-linecap:butt;stroke-linejoin:miter;stroke:rgb(0%,0%,0%);stroke-opacity:1;stroke-miterlimit:10;" d="M 79.734375 121.589844 L 72.710938 112.121094 "/>
<path style="fill:none;stroke-width:1.2;stroke-linecap:butt;stroke-linejoin:miter;stroke:rgb(0%,0%,100%);stroke-opacity:1;stroke-miterlimit:10;" d="M 82.09375 90.492188 L 93.804688 89.148438 "/>
<path style="fill:none;stroke-width:1.2;stroke-linecap:butt;stroke-linejoin:miter;stroke:rgb(0%,0%,0%);stroke-opacity:1;stroke-miterlimit:10;" d="M 93.804688 89.148438 L 105.515625 87.800781 "/>
<path style=" stroke:none;fill-rule:nonzero;fill:rgb(100%,100%,100%);fill-opacity:1;" d="M 79.09375 84.992188 L 86.09375 84.992188 L 86.09375 95.992188 L 79.09375 95.992188 Z M 79.09375 84.992188 "/>
<g style="fill:rgb(0%,0%,100%);fill-opacity:1;">
  <use xlink:href="#glyph0-2" x="79.09375" y="93.655273"/>
</g>
<path style="fill:none;stroke-width:1.2;stroke-linecap:butt;stroke-linejoin:miter;stroke:rgb(0%,0%,0%);stroke-opacity:1;stroke-miterlimit:10;" d="M 105.515625 87.800781 L 119.558594 106.742188 "/>
<path style="fill:none;stroke-width:1.2;stroke-linecap:butt;stroke-linejoin:miter;stroke:rgb(0%,0%,0%);stroke-opacity:1;stroke-miterlimit:10;" d="M 102.464844 93 L 113.695312 108.152344 "/>
<path style="fill:none;stroke-width:1.2;stroke-linecap:butt;stroke-linejoin:miter;stroke:rgb(0%,0%,0%);stroke-opacity:1;stroke-miterlimit:10;" d="M 119.558594 106.742188 L 110.175781 128.371094 "/>
<path style="fill:none;stroke-width:1.2;stroke-linecap:butt;stroke-linejoin:miter;stroke:rgb(0%,0%,100%);stroke-opacity:1;stroke-miterlimit:10;" d="M 142.980469 104.054688 L 131.269531 105.398438 "/>
<path style="fill:none;stroke-width:1.2;stroke-linecap:butt;stroke-linejoin:miter;stroke:rgb(0%,0%,0%);stroke-opacity:1;stroke-miterlimit:10;" d="M 131.269531 105.398438 L 119.558594 106.742188 "/>
<path style="fill:none;stroke-width:1.2;stroke-linecap:butt;stroke-linejoin:miter;stroke:rgb(0%,0%,0%);stroke-opacity:1;stroke-miterlimit:10;" d="M 110.175781 128.371094 L 98.464844 129.714844 "/>
<path style="fill:none;stroke-width:1.2;stroke-linecap:butt;stroke-linejoin:miter;stroke:rgb(0%,0%,100%);stroke-opacity:1;stroke-miterlimit:10;" d="M 98.464844 129.714844 L 86.753906 131.058594 "/>
<path style="fill:none;stroke-width:1.2;stroke-linecap:butt;stroke-linejoin:miter;stroke:rgb(0%,0%,0%);stroke-opacity:1;stroke-miterlimit:10;" d="M 107.199219 123.128906 L 97.832031 124.203125 "/>
<path style="fill:none;stroke-width:1.2;stroke-linecap:butt;stroke-linejoin:miter;stroke:rgb(0%,0%,100%);stroke-opacity:1;stroke-miterlimit:10;" d="M 97.832031 124.203125 L 88.460938 125.28125 "/>
<path style="fill:none;stroke-width:1.2;stroke-linecap:butt;stroke-linejoin:miter;stroke:rgb(0%,0%,0%);stroke-opacity:1;stroke-miterlimit:10;" d="M 110.175781 128.371094 L 117.195312 137.839844 "/>
<path style="fill:none;stroke-width:1.2;stroke-linecap:butt;stroke-linejoin:miter;stroke:rgb(0%,0%,100%);stroke-opacity:1;stroke-miterlimit:10;" d="M 117.195312 137.839844 L 124.214844 147.3125 "/>
<path style=" stroke:none;fill-rule:nonzero;fill:rgb(100%,100%,100%);fill-opacity:1;" d="M 83.753906 125.558594 L 90.753906 125.558594 L 90.753906 136.558594 L 83.753906 136.558594 Z M 83.753906 125.558594 "/>
<g style="fill:rgb(0%,0%,100%);fill-opacity:1;">
  <use xlink:href="#glyph0-2" x="83.753906" y="134.22168"/>
</g>
<path style="fill:none;stroke-width:1.2;stroke-linecap:butt;stroke-linejoin:miter;stroke:rgb(0%,0%,100%);stroke-opacity:1;stroke-miterlimit:10;" d="M 124.214844 147.3125 L 135.925781 145.964844 "/>
<path style="fill:none;stroke-width:1.2;stroke-linecap:butt;stroke-linejoin:miter;stroke:rgb(0%,0%,0%);stroke-opacity:1;stroke-miterlimit:10;" d="M 135.925781 145.964844 L 147.636719 144.621094 "/>
<path style="fill:none;stroke-width:1.2;stroke-linecap:butt;stroke-linejoin:miter;stroke:rgb(0%,0%,100%);stroke-opacity:1;stroke-miterlimit:10;" d="M 124.214844 147.3125 L 119.523438 158.125 "/>
<path style="fill:none;stroke-width:1.2;stroke-linecap:butt;stroke-linejoin:miter;stroke:rgb(0%,0%,0%);stroke-opacity:1;stroke-miterlimit:10;" d="M 119.523438 158.125 L 114.832031 168.941406 "/>
<path style=" stroke:none;fill-rule:nonzero;fill:rgb(100%,100%,100%);fill-opacity:1;" d="M 121.214844 141.8125 L 128.214844 141.8125 L 128.214844 152.8125 L 121.214844 152.8125 Z M 121.214844 141.8125 "/>
<g style="fill:rgb(0%,0%,100%);fill-opacity:1;">
  <use xlink:href="#glyph0-2" x="121.214844" y="150.475586"/>
</g>
<path style="fill:none;stroke-width:1.2;stroke-linecap:butt;stroke-linejoin:miter;stroke:rgb(0%,0%,0%);stroke-opacity:1;stroke-miterlimit:10;" d="M 145.410156 146.273438 L 152.429688 155.742188 "/>
<path style="fill:none;stroke-width:1.2;stroke-linecap:butt;stroke-linejoin:miter;stroke:rgb(100%,0%,0%);stroke-opacity:1;stroke-miterlimit:10;" d="M 152.429688 155.742188 L 159.449219 165.214844 "/>
<path style="fill:none;stroke-width:1.2;stroke-linecap:butt;stroke-linejoin:miter;stroke:rgb(0%,0%,0%);stroke-opacity:1;stroke-miterlimit:10;" d="M 149.867188 142.96875 L 156.886719 152.441406 "/>
<path style="fill:none;stroke-width:1.2;stroke-linecap:butt;stroke-linejoin:miter;stroke:rgb(100%,0%,0%);stroke-opacity:1;stroke-miterlimit:10;" d="M 156.886719 152.441406 L 163.90625 161.910156 "/>
<path style="fill:none;stroke-width:1.2;stroke-linecap:butt;stroke-linejoin:miter;stroke:rgb(0%,0%,0%);stroke-opacity:1;stroke-miterlimit:10;" d="M 147.636719 144.621094 L 157.019531 122.992188 "/>
<path style=" stroke:none;fill-rule:nonzero;fill:rgb(100%,100%,100%);fill-opacity:1;" d="M 157.675781 158.0625 L 165.675781 158.0625 L 165.675781 169.0625 L 157.675781 169.0625 Z M 157.675781 158.0625 "/>
<g style="fill:rgb(100%,0%,0%);fill-opacity:1;">
  <use xlink:href="#glyph0-1" x="157.675781" y="166.725586"/>
</g>
<path style="fill:none;stroke-width:1.2;stroke-linecap:butt;stroke-linejoin:miter;stroke:rgb(0%,0%,0%);stroke-opacity:1;stroke-miterlimit:10;" d="M 157.019531 122.992188 L 150 113.523438 "/>
<path style="fill:none;stroke-width:1.2;stroke-linecap:butt;stroke-linejoin:miter;stroke:rgb(0%,0%,100%);stroke-opacity:1;stroke-miterlimit:10;" d="M 150 113.523438 L 142.980469 104.054688 "/>
<path style="fill:none;stroke-width:1.2;stroke-linecap:butt;stroke-linejoin:miter;stroke:rgb(0%,0%,0%);stroke-opacity:1;stroke-miterlimit:10;" d="M 151.160156 124.402344 L 145.542969 116.828125 "/>
<path style="fill:none;stroke-width:1.2;stroke-linecap:butt;stroke-linejoin:miter;stroke:rgb(0%,0%,100%);stroke-opacity:1;stroke-miterlimit:10;" d="M 145.542969 116.828125 L 139.925781 109.25 "/>
<path style="fill:none;stroke-width:1.2;stroke-linecap:butt;stroke-linejoin:miter;stroke:rgb(0%,0%,0%);stroke-opacity:1;stroke-miterlimit:10;" d="M 157.019531 122.992188 L 180.441406 120.304688 "/>
<path style=" stroke:none;fill-rule:nonzero;fill:rgb(100%,100%,100%);fill-opacity:1;" d="M 139.980469 98.554688 L 146.980469 98.554688 L 146.980469 109.554688 L 139.980469 109.554688 Z M 139.980469 98.554688 "/>
<g style="fill:rgb(0%,0%,100%);fill-opacity:1;">
  <use xlink:href="#glyph0-2" x="139.980469" y="107.217773"/>
</g>
<path style="fill:none;stroke-width:1.2;stroke-linecap:butt;stroke-linejoin:miter;stroke:rgb(0%,0%,0%);stroke-opacity:1;stroke-miterlimit:10;" d="M 180.441406 120.304688 L 194.484375 139.242188 "/>
<path style="fill:none;stroke-width:1.2;stroke-linecap:butt;stroke-linejoin:miter;stroke:rgb(0%,0%,0%);stroke-opacity:1;stroke-miterlimit:10;" d="M 194.484375 139.242188 L 217.90625 136.554688 "/>
<path style="fill:none;stroke-width:1.2;stroke-linecap:butt;stroke-linejoin:miter;stroke:rgb(0%,0%,0%);stroke-opacity:1;stroke-miterlimit:10;" d="M 217.90625 136.554688 L 231.945312 155.496094 "/>
<path style="fill:none;stroke-width:1.2;stroke-linecap:butt;stroke-linejoin:miter;stroke:rgb(0%,0%,0%);stroke-opacity:1;stroke-miterlimit:10;" d="M 223.765625 135.144531 L 234.996094 150.296875 "/>
<path style="fill:none;stroke-width:1.2;stroke-linecap:butt;stroke-linejoin:miter;stroke:rgb(0%,0%,0%);stroke-opacity:1;stroke-miterlimit:10;" d="M 227.289062 114.925781 L 217.90625 136.554688 "/>
<path style="fill:none;stroke-width:1.2;stroke-linecap:butt;stroke-linejoin:miter;stroke:rgb(0%,0%,0%);stroke-opacity:1;stroke-miterlimit:10;" d="M 231.945312 155.496094 L 255.367188 152.804688 "/>
<path style="fill:none;stroke-width:1.2;stroke-linecap:butt;stroke-linejoin:miter;stroke:rgb(0%,0%,0%);stroke-opacity:1;stroke-miterlimit:10;" d="M 255.367188 152.804688 L 264.75 131.175781 "/>
<path style="fill:none;stroke-width:1.2;stroke-linecap:butt;stroke-linejoin:miter;stroke:rgb(0%,0%,0%);stroke-opacity:1;stroke-miterlimit:10;" d="M 251.214844 148.433594 L 258.722656 131.132812 "/>
<path style="fill:none;stroke-width:1.2;stroke-linecap:butt;stroke-linejoin:miter;stroke:rgb(0%,0%,0%);stroke-opacity:1;stroke-miterlimit:10;" d="M 264.75 131.175781 L 250.710938 112.238281 "/>
<path style="fill:none;stroke-width:1.2;stroke-linecap:butt;stroke-linejoin:miter;stroke:rgb(0%,0%,0%);stroke-opacity:1;stroke-miterlimit:10;" d="M 250.710938 112.238281 L 227.289062 114.925781 "/>
<path style="fill:none;stroke-width:1.2;stroke-linecap:butt;stroke-linejoin:miter;stroke:rgb(0%,0%,0%);stroke-opacity:1;stroke-miterlimit:10;" d="M 249 118.015625 L 230.261719 120.167969 "/>
<path style="fill:none;stroke-width:1.2;stroke-linecap:butt;stroke-linejoin:miter;stroke:rgb(0%,0%,0%);stroke-opacity:1;stroke-miterlimit:10;" d="M 114.832031 168.941406 L 91.410156 171.628906 "/>
<path style="fill:none;stroke-width:1.2;stroke-linecap:butt;stroke-linejoin:miter;stroke:rgb(0%,0%,0%);stroke-opacity:1;stroke-miterlimit:10;" d="M 113.121094 174.71875 L 94.386719 176.871094 "/>
<path style="fill:none;stroke-width:1.2;stroke-linecap:butt;stroke-linejoin:miter;stroke:rgb(0%,0%,0%);stroke-opacity:1;stroke-miterlimit:10;" d="M 128.871094 187.878906 L 114.832031 168.941406 "/>
<path style="fill:none;stroke-width:1.2;stroke-linecap:butt;stroke-linejoin:miter;stroke:rgb(0%,0%,0%);stroke-opacity:1;stroke-miterlimit:10;" d="M 91.410156 171.628906 L 82.027344 193.257812 "/>
<path style="fill:none;stroke-width:1.2;stroke-linecap:butt;stroke-linejoin:miter;stroke:rgb(0%,0%,0%);stroke-opacity:1;stroke-miterlimit:10;" d="M 82.027344 193.257812 L 96.066406 212.199219 "/>
<path style="fill:none;stroke-width:1.2;stroke-linecap:butt;stroke-linejoin:miter;stroke:rgb(0%,0%,0%);stroke-opacity:1;stroke-miterlimit:10;" d="M 87.886719 191.847656 L 99.121094 207 "/>
<path style="fill:none;stroke-width:1.2;stroke-linecap:butt;stroke-linejoin:miter;stroke:rgb(0%,0%,0%);stroke-opacity:1;stroke-miterlimit:10;" d="M 96.066406 212.199219 L 119.488281 209.507812 "/>
<path style="fill:none;stroke-width:1.2;stroke-linecap:butt;stroke-linejoin:miter;stroke:rgb(0%,0%,0%);stroke-opacity:1;stroke-miterlimit:10;" d="M 119.488281 209.507812 L 128.871094 187.878906 "/>
<path style="fill:none;stroke-width:1.2;stroke-linecap:butt;stroke-linejoin:miter;stroke:rgb(0%,0%,0%);stroke-opacity:1;stroke-miterlimit:10;" d="M 115.339844 205.136719 L 122.84375 187.835938 "/>
</g>
</svg>

<svg xmlns="http://www.w3.org/2000/svg" xmlns:xlink="http://www.w3.org/1999/xlink" width="300pt" height="300pt" viewBox="0 0 300 300"><defs><symbol overflow="visible"><path d="M.453 1.594v-7.938h4.5v7.938zm.5-.5h3.5v-6.938h-3.5zm0 0"/></symbol><symbol overflow="visible" id="a"><path d="M3.547-5.953c-.65 0-1.164.242-1.547.72-.375.48-.563 1.13-.563 1.952 0 .835.188 1.49.563 1.967.383.48.898.72 1.547.72.644 0 1.156-.24 1.53-.72.376-.476.564-1.132.564-1.968 0-.822-.187-1.474-.562-1.954-.375-.477-.887-.72-1.53-.72zm0-.734c.914 0 1.648.312 2.203.937.55.617.828 1.438.828 2.47 0 1.042-.277 1.87-.828 2.483-.555.617-1.29.922-2.203.922-.93 0-1.668-.305-2.22-.922C.774-1.41.5-2.237.5-3.28c0-1.033.273-1.853.828-2.47.55-.625 1.29-.938 2.22-.938zm0 0"/></symbol><symbol overflow="visible" id="b"><path d="M.89-6.563H2.08l2.906 5.485v-5.484h.86V0H4.656L1.75-5.484V0H.89zm0 0"/></symbol></defs><g><path fill="#fff" d="M0 0h300v300H0z"/><path d="M35.25 95.87l7.02 9.47" stroke-width="1.2" stroke="#000" stroke-miterlimit="10" fill="none"/><path d="M42.27 105.34l7.02 9.47M49.29 114.81L61 113.464" stroke-width="1.2" stroke="#f00" stroke-miterlimit="10" fill="none"/><path d="M61 113.465l11.71-1.344" stroke-width="1.2" stroke="#000" stroke-miterlimit="10" fill="none"/><path d="M45.29 109.31h8v11h-8zm0 0" fill="#fff"/><use xlink:href="#a" x="45.289" y="117.972" fill="#f00"/><path d="M72.71 112.12l4.692-10.815" stroke-width="1.2" stroke="#000" stroke-miterlimit="10" fill="none"/><path d="M77.402 101.305l4.692-10.813" stroke-width="1.2" stroke="#00f" stroke-miterlimit="10" fill="none"/><path d="M78.738 112.164l3.754-8.652" stroke-width="1.2" stroke="#000" stroke-miterlimit="10" fill="none"/><path d="M82.492 103.512l3.754-8.65M86.754 131.06l-7.02-9.47" stroke-width="1.2" stroke="#00f" stroke-miterlimit="10" fill="none"/><path d="M79.734 121.59l-7.023-9.47" stroke-width="1.2" stroke="#000" stroke-miterlimit="10" fill="none"/><path d="M82.094 90.492l11.71-1.344" stroke-width="1.2" stroke="#00f" stroke-miterlimit="10" fill="none"/><path d="M93.805 89.148l11.71-1.347" stroke-width="1.2" stroke="#000" stroke-miterlimit="10" fill="none"/><path d="M79.094 84.992h7v11h-7zm0 0" fill="#fff"/><use xlink:href="#b" x="79.094" y="93.655" fill="#00f"/><path d="M105.516 87.8l14.043 18.942M102.465 93l11.23 15.152M119.56 106.742l-9.384 21.63" stroke-width="1.2" stroke="#000" stroke-miterlimit="10" fill="none"/><path d="M142.98 104.055l-11.71 1.343" stroke-width="1.2" stroke="#00f" stroke-miterlimit="10" fill="none"/><path d="M131.27 105.398l-11.71 1.344M110.176 128.37l-11.71 1.345" stroke-width="1.2" stroke="#000" stroke-miterlimit="10" fill="none"/><path d="M98.465 129.715l-11.71 1.344" stroke-width="1.2" stroke="#00f" stroke-miterlimit="10" fill="none"/><path d="M107.2 123.13l-9.368 1.073" stroke-width="1.2" stroke="#000" stroke-miterlimit="10" fill="none"/><path d="M97.832 124.203l-9.37 1.078" stroke-width="1.2" stroke="#00f" stroke-miterlimit="10" fill="none"/><path d="M110.176 128.37l7.02 9.47" stroke-width="1.2" stroke="#000" stroke-miterlimit="10" fill="none"/><path d="M117.195 137.84l7.02 9.472" stroke-width="1.2" stroke="#00f" stroke-miterlimit="10" fill="none"/><path d="M83.754 125.56h7v11h-7zm0 0" fill="#fff"/><use xlink:href="#b" x="83.754" y="134.222" fill="#00f"/><path d="M124.215 147.313l11.71-1.348" stroke-width="1.2" stroke="#00f" stroke-miterlimit="10" fill="none"/><path d="M135.926 145.965l11.71-1.344" stroke-width="1.2" stroke="#000" stroke-miterlimit="10" fill="none"/><path d="M124.215 147.313l-4.692 10.812" stroke-width="1.2" stroke="#00f" stroke-miterlimit="10" fill="none"/><path d="M119.523 158.125l-4.69 10.816" stroke-width="1.2" stroke="#000" stroke-miterlimit="10" fill="none"/><path d="M121.215 141.813h7v11h-7zm0 0" fill="#fff"/><use xlink:href="#b" x="121.215" y="150.476" fill="#00f"/><path d="M145.41 146.273l7.02 9.47" stroke-width="1.2" stroke="#000" stroke-miterlimit="10" fill="none"/><path d="M152.43 155.742l7.02 9.473" stroke-width="1.2" stroke="#f00" stroke-miterlimit="10" fill="none"/><path d="M149.867 142.97l7.02 9.47" stroke-width="1.2" stroke="#000" stroke-miterlimit="10" fill="none"/><path d="M156.887 152.44l7.02 9.47" stroke-width="1.2" stroke="#f00" stroke-miterlimit="10" fill="none"/><path d="M147.637 144.62l9.383-21.628" stroke-width="1.2" stroke="#000" stroke-miterlimit="10" fill="none"/><path d="M157.676 158.063h8v11h-8zm0 0" fill="#fff"/><use xlink:href="#a" x="157.676" y="166.726" fill="#f00"/><path d="M157.02 122.992l-7.02-9.47" stroke-width="1.2" stroke="#000" stroke-miterlimit="10" fill="none"/><path d="M150 113.523l-7.02-9.468" stroke-width="1.2" stroke="#00f" stroke-miterlimit="10" fill="none"/><path d="M151.16 124.402l-5.617-7.574" stroke-width="1.2" stroke="#000" stroke-miterlimit="10" fill="none"/><path d="M145.543 116.828l-5.617-7.578" stroke-width="1.2" stroke="#00f" stroke-miterlimit="10" fill="none"/><path d="M157.02 122.992l23.42-2.687" stroke-width="1.2" stroke="#000" stroke-miterlimit="10" fill="none"/><path d="M139.98 98.555h7v11h-7zm0 0" fill="#fff"/><use xlink:href="#b" x="139.98" y="107.218" fill="#00f"/><path d="M180.44 120.305l14.044 18.937M194.484 139.242l23.422-2.687M217.906 136.555l14.04 18.94M223.766 135.145l11.23 15.152M227.29 114.926l-9.384 21.63M231.945 155.496l23.422-2.69M255.367 152.805l9.383-21.63M251.215 148.434l7.508-17.3M264.75 131.176l-14.04-18.938M250.71 112.238l-23.42 2.688M249 118.016l-18.738 2.152M114.832 168.94l-23.422 2.69M113.12 174.72l-18.733 2.15M128.87 187.88l-14.038-18.94M91.41 171.63l-9.383 21.628M82.027 193.258l14.04 18.94M87.887 191.848L99.12 207M96.066 212.2l23.422-2.692M119.488 209.508l9.383-21.63M115.34 205.137l7.504-17.3" stroke-width="1.2" stroke="#000" stroke-miterlimit="10" fill="none"/></g></svg>
